public/common/language.svg

<svg width="30" height="30" viewBox="0 0 30 30" fill="none" xmlns="http://www.w3.org/2000/svg">
<path fill-rule="evenodd" clip-rule="evenodd" d="M15 27.1875C15.4312 27.1875 16.5806 26.7638 17.7881 24.3488C18.3619 23.2013 18.8438 21.78 19.1794 20.1562H10.8206C11.1562 21.78 11.6381 23.2013 12.2119 24.3488C13.4194 26.7638 14.5688 27.1875 15 27.1875ZM10.4137 17.3438C10.2783 15.7842 10.2783 14.2158 10.4137 12.6562H19.5863C19.7216 14.2158 19.7216 15.7842 19.5863 17.3438H10.4137ZM22.0444 20.1562C21.6244 22.4513 20.9325 24.4838 20.0456 26.0963C22.6871 24.8909 24.8138 22.7855 26.0456 20.1562H22.0444ZM26.9625 17.3438H22.4062C22.5284 15.7836 22.5284 14.2164 22.4062 12.6562H26.9606C27.2624 14.2042 27.2624 15.7958 26.9606 17.3438H26.9625ZM7.59187 17.3438H3.0375C2.73575 15.7958 2.73575 14.2042 3.0375 12.6562H7.59375C7.47145 14.2164 7.47145 15.7836 7.59375 17.3438H7.59187ZM3.95438 20.1562H7.95563C8.37562 22.4513 9.0675 24.4838 9.95438 26.0963C7.31289 24.8909 5.18617 22.7855 3.95438 20.1562ZM10.8206 9.84375H19.1794C18.8438 8.22 18.3619 6.79875 17.7881 5.65125C16.5806 3.23625 15.4312 2.8125 15 2.8125C14.5688 2.8125 13.4194 3.23625 12.2119 5.65125C11.6381 6.79875 11.1562 8.22 10.8206 9.84375ZM22.0444 9.84375H26.0456C24.8137 7.21461 22.687 5.10919 20.0456 3.90375C20.9325 5.51625 21.6244 7.54875 22.0444 9.84375ZM9.95625 3.90375C9.06938 5.51625 8.3775 7.54875 7.9575 9.84375H3.95438C5.18617 7.21451 7.31477 5.10906 9.95625 3.90375ZM15 0C18.9782 0 22.7936 1.58035 25.6066 4.3934C28.4196 7.20644 30 11.0218 30 15C30 18.9782 28.4196 22.7936 25.6066 25.6066C22.7936 28.4196 18.9782 30 15 30C11.0218 30 7.20644 28.4196 4.3934 25.6066C1.58035 22.7936 0 18.9782 0 15C0 11.0218 1.58035 7.20644 4.3934 4.3934C7.20644 1.58035 11.0218 0 15 0Z" fill="black"/>
</svg>

<svg width="30" height="30" fill="none" xmlns="http://www.w3.org/2000/svg"><path fill-rule="evenodd" clip-rule="evenodd" d="M15 27.188c.431 0 1.58-.424 2.788-2.84.574-1.147 1.056-2.568 1.391-4.192h-8.358c.335 1.624.817 3.045 1.39 4.193 1.208 2.415 2.358 2.838 2.789 2.838zm-4.586-9.844a27.099 27.099 0 0 1 0-4.688h9.172c.136 1.56.136 3.128 0 4.688h-9.172zm11.63 2.812c-.42 2.295-1.111 4.328-1.998 5.94a12.235 12.235 0 0 0 6-5.94h-4.002zm4.918-2.812h-4.556c.122-1.56.122-3.128 0-4.688h4.555c.301 1.548.301 3.14 0 4.688h.002zm-19.37 0H3.038a12.25 12.25 0 0 1 0-4.688h4.556a29.99 29.99 0 0 0 0 4.688h-.002zm-3.638 2.812h4.002c.42 2.295 1.112 4.328 1.998 5.94a12.235 12.235 0 0 1-6-5.94zm6.867-10.312h8.358c-.335-1.624-.817-3.045-1.39-4.193C16.58 3.236 15.43 2.813 15 2.813c-.431 0-1.58.423-2.788 2.838-.574 1.148-1.056 2.569-1.391 4.193zm11.223 0h4.002a12.236 12.236 0 0 0-6-5.94c.887 1.612 1.578 3.645 1.998 5.94zM9.956 3.904c-.887 1.612-1.579 3.645-1.998 5.94H3.954a12.238 12.238 0 0 1 6.002-5.94zM15 0a15 15 0 1 1 0 30 15 15 0 0 1 0-30z" fill="#000"/></svg>
